!!!OTL: Gongchandang de enqing changbuwan
!!!ARE: Asia, China,ÿQinghai Huangyuan
!! I, 214
!!!SCT: C1844
!!!YEM: Copyright 1995, estate of Helmut Schaffrath.
**kern
*ICvox
*Ivox
*M3/8
*k[]
*C:
{8d
8g
16g
16e
=1
[4.d
=2
8d]
8r
16d
16g
=3
8g
8.g
16a
=4
[4.dd
=5
4.dd]}
=6
{8gg
8dd
16dd
16cc
=7
4a
24cc
24a
24cc
=8
8dd
8dd
16dd
16cc
=9
4a
8r}
=10
{8d
8g
16g
16e
=11
[4.d
=12
8d]
8r
16d
16g
=13
8g
8g
[8a
=14
8a]
8dd
8gg
=15
8dd
8dd
16dd
16cc
=16
8a
[4g
=17
4g]
8a}
=18
{8dd
8dd
16dd
16gg
=19
8a
8cc
[8a
=20
8a]
[4g
=21
4.g]}
==
!!!AGN: Shange, Bacaoling
!! Hui Han
!!!ONB: ESAC (Essen Associative Code) Database: SENGANSU
!!!AMT: simple triple
!!!AIN: vox
!!!EED: Helmut Schaffrath
!!!EEV: 1.0
*-
!!!ONB: Tied note syntax fixed by Craig Sapp, 2004/05/03/
